X:1
T:B-section melody check
M:4/4
L:1/8
K:DDor
V:1
[V:1] "Bbmaj7" D2 F2 A2 z2 | "A7b9#5" ^C2 F2 _B2 z2 | "Gm9" G2 _B2 D2 z2 | "C7b9#5" E2 ^G2 _B2 z2 |
[V:1] "FM9" F2 A2 C2 E2 | "Ebmaj7" G2 _B2 D2 z2 | "A7b9#5" ^C2 F2 _B2 z2 | "A7b9#5" ^C2 F2 _B2 A2 |]
